packages/admin/admin-icons/icons/search.svg

<svg xmlns="http://www.w3.org/2000/svg" width="16" height="16" viewBox="0 0 16 16"><path fill="#242424" fill-rule="evenodd" d="M6.5,0 C10.0898509,0 13,2.91014913 13,6.5 C13,8.04934927 12.4549022,9.51342995 11.4867638,10.669571 L11.441,10.72 L15.8540974,15.1469915 C16.0273963,15.3208249 16.0462665,15.5902787 15.9109705,15.7849387 L15.8530085,15.8540974 C15.6791751,16.0273963 15.4097213,16.0462665 15.2150613,15.9109705 L15.1459026,15.8530085 L10.0440023,10.7353703 L10.3958011,10.382362 C11.4168462,9.35780653 12,7.97567967 12,6.5 C12,3.46243388 9.53756612,1 6.5,1 C3.46243388,1 1,3.46243388 1,6.5 C1,9.53756612 3.46243388,12 6.5,12 C7.13919303,12 7.76277805,11.8911423 8.35144997,11.680745 C8.6114828,11.5878066 8.89762249,11.7232634 8.99056086,11.9832962 C9.08349923,12.2433291 8.94804242,12.5294688 8.68800959,12.6224071 C7.99170528,12.8712734 7.25430224,13 6.5,13 C2.91014913,13 0,10.0898509 0,6.5 C0,2.91014913 2.91014913,0 6.5,0 Z"/></svg>

<svg width="16" height="16" fill="none" viewBox="0 0 16 16">
  <path fill="#242424" fill-rule="evenodd" d="M6.5.001a6.5 6.5 0 0 1 4.987 10.67l-.046.05 4.413 4.427a.5.5 0 0 1 .057.638l-.058.07a.5.5 0 0 1-.638.056l-.07-.058-5.101-5.118.352-.353a5.5 5.5 0 1 0-2.044 1.298.5.5 0 0 1 .336.942A6.5 6.5 0 1 1 6.5.001Z" clip-rule="evenodd"/>
</svg>
